X:1
T:Samuel (Monk), 66.66.88
T:Samuel (Monk), 66.66.88
T:William Henry Monk, 1889
T:Public Domain Courtesy of the Cyber Hymnal™
C:William Henry Monk, 1889
Z:Public Domain
Z:Courtesy of the Cyber Hymnal™
%%score ( 1 2 ) ( 3 4 )
L:1/8
Q:1/4=113
M:4/4
K:F
V:1 treble 
V:2 treble 
V:3 bass 
V:4 bass 
V:1
 [FA]2 [FA][FA] [Gc]2 [Ec]2 | F6 F2 | [FG]2 [FG]2 [EG]2 (AB) | [FA]6 [CF]2 | %4
 [CD]2 [B,E]2 [A,F]2 [DG]2 | [^CA]2 [EG]2 [DF]2 [DG]2 | E6 z2 E2 | D6 [DF]2 | %8
 [EG]3 [EG] [EG]2 [Gc]2 | [FA]2 [Fc]2 [Ff]2 F2 | [FG]2 [FA]2 [FB]3 [FB] | [FA]2 [EG]2 F2 x |] %12
V:2
 x8 | F6 F2 | x6 E2 | x8 | x8 | x8 | D4 ^C4 x2 | D6 x2 | x8 | x6 F2 | x8 | x4 F2 x |] %12
V:3
 [F,C]2 [F,C][F,C] [E,C]2 [C,B,]2 | [D,A,]6 [A,,C]2 | [B,,D]2 [B,,D]2 [C,C]2 [C,C]2 | %3
 [F,,C]6 [A,,F,]2 | [B,,F,]2 [G,,G,]2 [D,F,]2 [B,,D,]2 | [A,,E,]2 [^C,A,]2 [D,A,]2 [G,,B,]2 | %6
 [A,,A,]6 [A,,E,]2 x2 | [D,F,]6 [D,A,]2 | [C,C]3 [C,C] [C,C]2 [E,C]2 | %9
 [F,C]2 [E,C]2 [D,A,]2 [A,,C]2 | [B,,D]2 [A,,C]2 [G,,B,]3 [G,,D] | C3 z B, [F,A,]2 |] %12
V:4
 x8 | x8 | x8 | x8 | x8 | x8 | x10 | x8 | x8 | x8 | x8 | C,2 C,2 x3 |] %12

